X:1
T:Title
%%score { ( 1 3 ) | 2 }
L:1/8
M:4/4
K:G
V:1 treble nm="Grand Piano"
V:3 treble 
V:2 treble 
V:1
 z4 z2 z[Q:1/4=90] D | B2 AG G F2 D | c2 BA B3 d | d2 z2 z4 |[M:7/8] [Ec]2 [CDF] [CDF] [B,DG]3 | %5
[M:1/8] B |[M:4/4] A2 GG F [FA]2 [FA] | [Fd]2 [FA][F_B] =B3 B | A2 [GB][G^c] [Fd] [Fd]2 [DF] | %9
[M:7/8] [^CA]2 [CG] [CE] D3 |[M:1/8] D |[M:4/4] B2 AG G F2 D | c2 BA B3 d | d2 z2 z4 | %14
[M:15/8] [Ec]2 [CDF][CDF] [B,DG]2- [B,DG] z2 z6 |] %15
V:2
 z4 z2 z [G,B,] | [G,DG]2[K:bass] [G,CD][G,B,D] [D,B,D] [D,A,D]2 [D,F,] | %2
 [D,A,D]2 [D,G,D][D,F,D][K:treble] [G,D]3 [G,B,D] | %3
 .[G,B,D]2 [G,EG][G,DG][K:bass] [C,C] [C,C]2 [B,,^G,] |[M:7/8] [A,,A,]2 D, D, G,,3 |[M:1/8] [G,D] | %6
[M:4/4] [F,A,D]2 [E,A,^C][E,A,C] [D,A,D] [D,D]2 [D,D] | %7
 [D,A,]2 [D,D][D,D][K:treble] [G,DG]3 [G,D] | [F,A,D]2 [E,A,][E,A,] [D,A,] [D,A,]2 [D,A,] | %9
[M:7/8] [A,,A,]2 [A,,E,] [A,,G,] [D,F,]3 |[M:1/8] [G,B,] | %11
[M:4/4][K:treble] [G,DG]2 [G,CD][K:bass][G,B,D] [D,B,D] [D,A,D]2 [D,F,] | %12
 [D,A,D]2 [D,G,D][D,F,D][K:treble] [G,D]3 [G,B,D] | %13
 .[G,B,D]2 [G,EG][G,DG][K:bass] [C,C] [C,C]2 [B,,^G,] |[M:15/8] [A,,A,]2 D,D, G,,2- G,, z2 z6 |] %15
V:3
 x8 | x8 | x8 | z GcB [EB] [EA]2 [EB] |[M:7/8] x7 |[M:1/8] x |[M:4/4] x8 | x8 | x8 |[M:7/8] x7 | %10
[M:1/8] x |[M:4/4] x8 | x8 | z GcB [EB] [EA]2 [EB] |[M:15/8] x15 |] %15

